X:1
T:GB/7e/20 Old King Cole
T:GB/7e/20 Old King Cole
T:Young Tupps
C:Young Tupps
L:1/8
M:4/4
K:C
V:1 treble 
V:1
!p! e da a d bae!p!e!p!a b!>!d ave ec!p! ucbbe beaeugeea adufe ca due dua eedeuaduad ua!p!e[Q:1/4=120] F2 | %1
w: (O) * * * * * * * * * * * * * * * * * * * * * * * * * * * * * * * * * * * * * * * * * * * * * * * *|
 d2 d2 c2 cA | _BB B2 D2 DD | FF F2 F2 F2 | _B6 F2 | d2 dd c2 cA | _B2 BB D2 DD | _E2 EE F2 F2 | %8
w: Old King Cole was a|mer- ry old soul, and a|mer- ry old soul was|he. He|called for his pipe(?) and he|called for his glass and he||
 _B,8 | _B,2 C2 D2 _E2 | FF F2 F2 FF | _BB B2 B2 B2 | A8 |: _B3 B B2 BB | _B2 FF D2 F2 :| %15
w: |||||||

